_site/images/close.svg

<svg width="18px" height="18px" viewBox="565 451 18 18" version="1.1" xmlns="http://www.w3.org/2000/svg" xmlns:xlink="http://www.w3.org/1999/xlink">
    <path d="M573,459.707107 L566.353553,453.06066 L566,452.707107 L566.707107,452 L567.06066,452.353553 L573.707107,459 L580.353553,452.353553 L580.707107,452 L581.414214,452.707107 L581.06066,453.06066 L574.414214,459.707107 L581.06066,466.353553 L581.414214,466.707107 L580.707107,467.414214 L580.353553,467.06066 L573.707107,460.414214 L567.06066,467.06066 L566.707107,467.414214 L566,466.707107 L566.353553,466.353553 L573,459.707107 Z" id="Combined-Shape-Copy" stroke="#56BDFF" stroke-width="1" stroke-linecap="square" fill="none"></path>
</svg>

<svg width="18" height="18" viewBox="565 451 18 18" xmlns="http://www.w3.org/2000/svg"><path d="M573 459.707l-6.646-6.646-.354-.354.707-.707.354.354 6.646 6.646 6.647-6.646.353-.354.707.707-.353.354-6.647 6.646 6.647 6.647.353.353-.707.707-.353-.353-6.647-6.647-6.646 6.647-.354.353-.707-.707.354-.353 6.646-6.647z" stroke="#56BDFF" stroke-linecap="square" fill="none"/></svg>
